dist/assets/symbols/phone.svg

<svg viewBox="0 0 20 20" fill="none" xmlns="http://www.w3.org/2000/svg">
<path d="M14.8636 12.3397L11.5365 12.9893C9.2889 11.8529 7.90088 10.5472 7.09295 8.51216L7.71506 5.15026L6.53952 2H3.50898C2.59763 2 1.88019 2.75867 2.01673 3.6663C2.35605 5.93172 3.35789 10.0401 6.28502 12.9893C9.35919 16.0866 13.7875 17.4306 16.2242 17.9654C17.1654 18.1713 18 17.4322 18 16.4611V13.5437L14.8636 12.3397Z" fill="currentColor"/>
</svg>

<svg xmlns="http://www.w3.org/2000/svg" fill="none" viewBox="0 0 20 20"><path fill="currentColor" d="m14.864 12.34-3.328.65c-2.247-1.137-3.635-2.443-4.443-4.478l.622-3.362L6.54 2H3.509c-.911 0-1.629.759-1.492 1.666.34 2.266 1.34 6.374 4.268 9.323 3.074 3.098 7.502 4.442 9.94 4.976.94.206 1.775-.533 1.775-1.504v-2.917l-3.136-1.204Z"/></svg>
